src/logo-plain.svg

<svg xmlns="http://www.w3.org/2000/svg" viewBox="380.16 45.164 40.453 42.383" width="40.453" height="42.383"><path style="fill:#afd5aa;stroke:#000" d="m390.016 86.209 20.711-.048 8.083-5.389.518-27.134-8.557 5.72-21.317-.33-8.037-5.01.611 25.857 7.988 6.334Z"/><path style="fill:#d8d8d8;stroke:#000" d="m411.006 58.779-.702 27.584M389.865 59.46l.548 26.259"/><path style="fill:#d8d8d8" d="M428.01 52.527h34.839v34.839H428.01z"/></svg>

<?xml version="1.0" encoding="UTF-8" standalone="no"?>
<svg
   xmlns:dc="http://purl.org/dc/elements/1.1/"
   xmlns:cc="http://creativecommons.org/ns#"
   xmlns:rdf="http://www.w3.org/1999/02/22-rdf-syntax-ns#"
   xmlns:svg="http://www.w3.org/2000/svg"
   xmlns="http://www.w3.org/2000/svg"
   xmlns:sodipodi="http://sodipodi.sourceforge.net/DTD/sodipodi-0.dtd"
   xmlns:inkscape="http://www.inkscape.org/namespaces/inkscape"
   viewBox="380.16 45.164 40.453 42.383"
   width="40.453"
   height="42.383"
   version="1.1"
   id="svg888"
   sodipodi:docname="logo-plain.svg"
   inkscape:version="1.0.1 (3bc2e813f5, 2020-09-07)">
  <metadata
     id="metadata894">
    <rdf:RDF>
      <cc:Work
         rdf:about="">
        <dc:format>image/svg+xml</dc:format>
        <dc:type
           rdf:resource="http://purl.org/dc/dcmitype/StillImage" />
        <dc:title></dc:title>
      </cc:Work>
    </rdf:RDF>
  </metadata>
  <defs
     id="defs892" />
  <sodipodi:namedview
     pagecolor="#ffffff"
     bordercolor="#666666"
     borderopacity="1"
     objecttolerance="10"
     gridtolerance="10"
     guidetolerance="10"
     inkscape:pageopacity="0"
     inkscape:pageshadow="2"
     inkscape:window-width="3840"
     inkscape:window-height="2066"
     id="namedview890"
     showgrid="false"
     inkscape:zoom="37.82167"
     inkscape:cx="20.2265"
     inkscape:cy="21.1915"
     inkscape:window-x="-11"
     inkscape:window-y="-11"
     inkscape:window-maximized="1"
     inkscape:current-layer="svg888" />
  <path
     style="fill: rgb(175, 213, 170); stroke: rgb(0, 0, 0);"
     d="M 390.016 86.209 L 410.727 86.161 L 418.81 80.772 L 419.328 53.638 L 410.771 59.358 L 389.454 59.028 L 381.417 54.018 L 382.028 79.875 L 390.016 86.209 Z"
     id="path878" />
  <path
     style="fill: rgb(216, 216, 216); stroke: rgb(0, 0, 0);"
     d="M 411.006 58.779 L 410.304 86.363"
     id="path882" />
  <path
     style="fill: rgb(216, 216, 216); stroke: rgb(0, 0, 0);"
     d="M 389.865 59.46 L 390.413 85.719"
     id="path884" />
  <rect
     x="428.01"
     y="52.527"
     width="34.839"
     height="34.839"
     style="fill: rgb(216, 216, 216);"
     id="rect886" />
</svg>
